svg/arrow/transfer_line.svg

<?xml version="1.0" encoding="UTF-8"?>
<svg width="24px" height="24px" viewBox="0 0 24 24" version="1.1" xmlns="http://www.w3.org/2000/svg" xmlns:xlink="http://www.w3.org/1999/xlink">
    <title>transfer_line</title>
    <g id="页面-1" stroke="none" stroke-width="1" fill="none" fill-rule="evenodd">
        <g id="Arrow" transform="translate(-912.000000, 0.000000)" fill-rule="nonzero">
            <g id="transfer_line" transform="translate(912.000000, 0.000000)">
                 <path d="M24,0 L24,24 L0,24 L0,0 L24,0 Z M12.5934901,23.257841 L12.5819402,23.2595131 L12.5108777,23.2950439 L12.4918791,23.2987469 L12.4918791,23.2987469 L12.4767152,23.2950439 L12.4056548,23.2595131 C12.3958229,23.2563662 12.3870493,23.2590235 12.3821421,23.2649074 L12.3780323,23.275831 L12.360941,23.7031097 L12.3658947,23.7234994 L12.3769048,23.7357139 L12.4804777,23.8096931 L12.4953491,23.8136134 L12.4953491,23.8136134 L12.5071152,23.8096931 L12.6106902,23.7357139 L12.6232938,23.7196733 L12.6232938,23.7196733 L12.6266527,23.7031097 L12.609561,23.275831 C12.6075724,23.2657013 12.6010112,23.2592993 12.5934901,23.257841 L12.5934901,23.257841 Z M12.8583906,23.1452862 L12.8445485,23.1473072 L12.6598443,23.2396597 L12.6498822,23.2499052 L12.6498822,23.2499052 L12.6471943,23.2611114 L12.6650943,23.6906389 L12.6699349,23.7034178 L12.6699349,23.7034178 L12.678386,23.7104931 L12.8793402,23.8032389 C12.8914285,23.8068999 12.9022333,23.8029875 12.9078286,23.7952264 L12.9118235,23.7811639 L12.8776777,23.1665331 C12.8752882,23.1545897 12.8674102,23.1470016 12.8583906,23.1452862 L12.8583906,23.1452862 Z M12.1430473,23.1473072 C12.1332178,23.1423925 12.1221763,23.1452606 12.1156365,23.1525954 L12.1099173,23.1665331 L12.0757714,23.7811639 C12.0751323,23.7926639 12.0828099,23.8018602 12.0926481,23.8045676 L12.108256,23.8032389 L12.3092106,23.7104931 L12.3186497,23.7024347 L12.3186497,23.7024347 L12.3225043,23.6906389 L12.340401,23.2611114 L12.337245,23.2485176 L12.337245,23.2485176 L12.3277531,23.2396597 L12.1430473,23.1473072 Z" id="MingCute" fill-rule="nonzero"></path>
                <path d="M20,14 C20.5523,14 21,14.4477 21,15 C21,15.51285 20.613973,15.9355092 20.1166239,15.9932725 L20,16 L6.41421,16 L8.70711,18.2929 C9.09763,18.6834 9.09763,19.3166 8.70711,19.7071 C8.34662077,20.0675615 7.77939355,20.0952893 7.38709848,19.7902834 L7.29289,19.7071 L3.4636,15.8778 C2.7983584,15.212616 3.2240608,14.0940048 4.12621381,14.0055802 L4.24142,14 L20,14 Z M15.2929,4.29289 C15.6533615,3.93241 16.2206207,3.90468077 16.6128973,4.20970231 L16.7071,4.29289 L20.5364,8.12218 C21.20168,8.7874312 20.7759699,9.90599901 19.8738074,9.99442003 L19.7586,10 L4,10 C3.44772,10 3,9.55228 3,9 C3,8.48716857 3.38604429,8.06449347 3.88337975,8.0067278 L4,8 L17.5858,8 L15.2929,5.70711 C14.9024,5.31658 14.9024,4.68342 15.2929,4.29289 Z" id="形状" fill="#09244B"></path>
            </g>
        </g>
    </g>
</svg>

<svg xmlns="http://www.w3.org/2000/svg" width="24" height="24"><g fill="none" fill-rule="nonzero"><path d="M24 0v24H0V0h24ZM12.593 23.258l-.011.002-.071.035-.02.004-.014-.004-.071-.035c-.01-.004-.019-.001-.024.005l-.004.01-.017.428.005.02.01.013.104.074.015.004.012-.004.104-.074.012-.016.004-.017-.017-.427c-.002-.01-.009-.017-.017-.018Zm.265-.113-.013.002-.185.093-.01.01-.003.011.018.43.005.012.008.007.201.093c.012.004.023 0 .029-.008l.004-.014-.034-.614c-.003-.012-.01-.02-.02-.022Zm-.715.002a.023.023 0 0 0-.027.006l-.006.014-.034.614c0 .012.007.02.017.024l.015-.002.201-.093.01-.008.004-.011.017-.43-.003-.012-.01-.01-.184-.092Z"/><path fill="#09244B" d="M20 14a1 1 0 0 1 .117 1.993L20 16H6.414l2.293 2.293a1 1 0 0 1-1.32 1.497l-.094-.083-3.83-3.83c-.665-.664-.239-1.783.663-1.871L4.241 14H20Zm-4.707-9.707a1 1 0 0 1 1.32-.083l.094.083 3.83 3.83c.665.664.239 1.783-.663 1.871l-.115.006H4a1 1 0 0 1-.117-1.993L4 8h13.586l-2.293-2.293a1 1 0 0 1 0-1.414Z"/></g></svg>
